static/fa/svgs/solid/splotch.svg

<svg xmlns="http://www.w3.org/2000/svg" viewBox="0 0 512 512"><!--! Font Awesome Free 6.1.1 by @fontawesome - https://fontawesome.com License - https://fontawesome.com/license/free (Icons: CC BY 4.0, Fonts: SIL OFL 1.1, Code: MIT License) Copyright 2022 Fonticons, Inc.--><path d="m349.3 47.38 18.6 68.72c6.7 26 25.3 46.2 49.7 55.1l58.2 21.2c21.7 7.9 36.2 28.6 36.2 51.8 0 17.6-8.4 34.2-22.6 44.6l-82.5 59.3c-13.6 10.8-21.2 26-20.2 43.7l3.1 50.6c2.3 37.7-27.6 69.5-65.4 69.5-15.6 0-30.6-5.5-43.3-15.5l-45-38.2c-15-13.5-35.2-20.9-56.1-20.9h-8.4c-6.5 0-11.2.5-16.8 1.6l-66.99 13c-23.99 4.7-48.28-6.4-60.4-27.6-10.02-17.6-10.02-39.1 0-56.6l27.7-48.5c5.88-10.3 8.98-21.9 8.98-33.8 0-13.1-3.76-25.8-10.82-36.8L8.796 179.4c-15.534-24.2-10.063-56.2 12.614-73.8a55.402 55.402 0 0 1 37.66-11.59l71.73 4.65c29 1.84 56.3-10.75 75.1-33.73l31.4-40.27C249.4 9.133 267.9.057 287.6.057c28.9 0 54.2 19.413 61.7 47.323z"/></svg>

<svg xmlns="http://www.w3.org/2000/svg" viewBox="0 0 512 512"><!--! Font Awesome Free 6.1.1 by @fontawesome - https://fontawesome.com License - https://fontawesome.com/license/free (Icons: CC BY 4.0, Fonts: SIL OFL 1.1, Code: MIT License) Copyright 2022 Fonticons, Inc. --><path d="M349.3 47.38L367.9 116.1C374.6 142.1 393.2 162.3 417.6 171.2L475.8 192.4C497.5 200.3 512 221 512 244.2C512 261.8 503.6 278.4 489.4 288.8L406.9 348.1C393.3 358.9 385.7 374.1 386.7 391.8L389.8 442.4C392.1 480.1 362.2 511.9 324.4 511.9C308.8 511.9 293.8 506.4 281.1 496.4L236.1 458.2C221.1 444.7 200.9 437.3 180 437.3H171.6C165.1 437.3 160.4 437.8 154.8 438.9L87.81 451.9C63.82 456.6 39.53 445.5 27.41 424.3C17.39 406.7 17.39 385.2 27.41 367.7L55.11 319.2C60.99 308.9 64.09 297.3 64.09 285.4C64.09 272.3 60.33 259.6 53.27 248.6L8.796 179.4C-6.738 155.2-1.267 123.2 21.41 105.6C32.12 97.25 45.52 93.13 59.07 94.01L130.8 98.66C159.8 100.5 187.1 87.91 205.9 64.93L237.3 24.66C249.4 9.133 267.9 .0566 287.6 .0566C316.5 .0566 341.8 19.47 349.3 47.38V47.38z"/></svg>
